packages/radix-icons/twoTone/15/triangle-down.svg

<svg width="15" height="15" fill="none" xmlns="http://www.w3.org/2000/svg">
  <path d="M4 6H11L7.5 10.5L4 6Z" fill="currentColor" opacity=".2" />
  <path
    fill-rule="evenodd"
    clip-rule="evenodd"
    d="M3.10169 5.56065C3.2695 5.21755 3.61807 5 4.00001 5H11C11.3819 5 11.7305 5.21755 11.8983 5.56065C12.0661 5.90375 12.0238 6.31246 11.7894 6.61394L8.28936 11.1139C8.0999 11.3575 7.8086 11.5 7.50001 11.5C7.19142 11.5 6.90011 11.3575 6.71066 11.1139L3.21066 6.61394C2.97617 6.31246 2.93389 5.90375 3.10169 5.56065ZM5.26687 6H4.00001L4.77779 7L6.86658 9.68559L7.50001 10.5L8.13344 9.68559L10.2222 7L11 6H9.73315H5.26687Z"
    fill="currentColor"
  />
</svg>

<svg width="15" height="15" fill="none" xmlns="http://www.w3.org/2000/svg">
  <path d="M4 6h7l-3.5 4.5L4 6z" fill="currentColor" opacity=".2" />
  <path
    fill-rule="evenodd"
    clip-rule="evenodd"
    d="M3.102 5.56A1 1 0 014 5h7a1 1 0 01.79 1.614l-3.5 4.5a1 1 0 01-1.58 0l-3.5-4.5a1 1 0 01-.108-1.053zM5.267 6H4l.778 1 2.089 2.686.633.814.633-.814L10.223 7 11 6H5.267z"
    fill="currentColor"
  />
</svg>
